usr/share/icons/biglinux-icons-material/24/devices/bluetooth.svg

<svg width="24" height="24" version="1.1" xmlns="http://www.w3.org/2000/svg">
 <defs>
  <style id="current-color-scheme" type="text/css">.ColorScheme-Text { color:#363636; } .ColorScheme-Highlight { color:#5294e2; }</style>
 </defs>
 <path class="ColorScheme-Text" d="m11.998 4v7.041l-3.293-3.293-2e-3 2e-3c-0.35575-0.35595-0.99605-0.99609-0.99605-0.99609l-0.70703 0.70703 4.5449 4.541-4.5449 4.541 0.70703 0.70703s0.64035-0.64009 0.99609-0.99609h2e-3l3.2949-3.293v7.0391h1l4-4-4-4 4-4-4-4zm1.002 1.416 2.5859 2.5859-2.5859 2.5859zm0 8 2.5859 2.5859-2.5859 2.5859z" fill="currentColor"/>
</svg>

<svg xmlns="http://www.w3.org/2000/svg" width="24" height="24"><defs><style id="current-color-scheme" type="text/css">.ColorScheme-Highlight{color:#5294e2}</style></defs><path fill="currentColor" d="M11.998 4v7.041L8.705 7.748l-.002.002-.996-.996L7 7.46 11.545 12 7 16.544l.707.707.996-.996h.002L12 12.96V20h1l4-4-4-4 4-4-4-4zM13 5.416l2.586 2.586L13 10.588zm0 8 2.586 2.586L13 18.588z" style="color:#dedede"/></svg>
